tools/download-figma-icons/icons/outlined-large/apartment-building.svg

<svg xmlns="http://www.w3.org/2000/svg" width="64" height="64" fill="none" viewBox="0 0 64 64"><path fill="currentColor" fill-rule="evenodd" d="M40 61V49.5a1.5 1.5 0 0 0-.714-1.277l-6.5-4a1.5 1.5 0 0 0-1.572 0l-6.5 4A1.5 1.5 0 0 0 24 49.5V61H10V27h11.5c.223 0 .443-.05.645-.146L32 22.161l9.855 4.693c.202.096.422.146.645.146H54v34zm-13 0V50.338l5-3.076 5 3.076V61zM13.074 13h37.852l5.205 11H42.839l-10.194-4.854a1.5 1.5 0 0 0-1.29 0L21.161 24H7.869zM58.5 61H57V27h1.5c.514 0 .992-.264 1.268-.697.274-.435.308-.98.087-1.445l-6.625-14A1.5 1.5 0 0 0 51.875 10h-39.75c-.58 0-1.107.334-1.355.858l-6.625 14a1.5 1.5 0 0 0 .087 1.445c.276.433.754.697 1.268.697H7v34H5.5a1.5 1.5 0 0 0 0 3h53a1.5 1.5 0 0 0 0-3m-40-30h-3a1.5 1.5 0 0 0 0 3h3a1.5 1.5 0 0 0 0-3m7 0h3a1.5 1.5 0 0 1 0 3h-3a1.5 1.5 0 0 1 0-3m13 0h-3a1.5 1.5 0 0 0 0 3h3a1.5 1.5 0 0 0 0-3m7 0h3a1.5 1.5 0 0 1 0 3h-3a1.5 1.5 0 0 1 0-3m-27 7h-3a1.5 1.5 0 0 0 0 3h3a1.5 1.5 0 0 0 0-3m-3 7h3a1.5 1.5 0 0 1 0 3h-3a1.5 1.5 0 0 1 0-3m3 7h-3a1.5 1.5 0 0 0 0 3h3a1.5 1.5 0 0 0 0-3m7-14h3a1.5 1.5 0 0 1 0 3h-3a1.5 1.5 0 0 1 0-3m13 0h-3a1.5 1.5 0 0 0 0 3h3a1.5 1.5 0 0 0 0-3m7 0h3a1.5 1.5 0 0 1 0 3h-3a1.5 1.5 0 0 1 0-3m3 7h-3a1.5 1.5 0 0 0 0 3h3a1.5 1.5 0 0 0 0-3m-3 7h3a1.5 1.5 0 0 1 0 3h-3a1.5 1.5 0 0 1 0-3" clip-rule="evenodd"/></svg>

<svg width="64" height="64" viewBox="0 0 64 64" fill="none" xmlns="http://www.w3.org/2000/svg">
<path fill-rule="evenodd" clip-rule="evenodd" d="M40 61V49.5C40 48.979 39.729 48.495 39.286 48.223L32.786 44.223C32.304 43.926 31.696 43.926 31.214 44.223L24.714 48.223C24.271 48.495 24 48.979 24 49.5V61H10V27H21.5C21.723 27 21.943 26.95 22.145 26.854L32 22.161L41.855 26.854C42.057 26.95 42.277 27 42.5 27H54V61H40ZM27 61V50.338L32 47.262L37 50.338V61H27ZM13.074 13H50.926L56.131 24H42.839L32.645 19.146C32.236 18.952 31.764 18.952 31.355 19.146L21.161 24H7.869L13.074 13ZM58.5 61H57V27H58.5C59.014 27 59.492 26.736 59.768 26.303C60.042 25.868 60.076 25.323 59.855 24.858L53.23 10.858C52.982 10.334 52.455 10 51.875 10H12.125C11.545 10 11.018 10.334 10.77 10.858L4.145 24.858C3.924 25.323 3.958 25.868 4.232 26.303C4.508 26.736 4.986 27 5.5 27H7V61H5.5C4.672 61 4 61.672 4 62.5C4 63.328 4.672 64 5.5 64H8.5H25.5H38.5H55.5H58.5C59.328 64 60 63.328 60 62.5C60 61.672 59.328 61 58.5 61ZM18.5 31H15.5C14.672 31 14 31.672 14 32.5C14 33.328 14.672 34 15.5 34H18.5C19.328 34 20 33.328 20 32.5C20 31.672 19.328 31 18.5 31ZM25.5 31H28.5C29.328 31 30 31.672 30 32.5C30 33.328 29.328 34 28.5 34H25.5C24.672 34 24 33.328 24 32.5C24 31.672 24.672 31 25.5 31ZM38.5 31H35.5C34.672 31 34 31.672 34 32.5C34 33.328 34.672 34 35.5 34H38.5C39.328 34 40 33.328 40 32.5C40 31.672 39.328 31 38.5 31ZM45.5 31H48.5C49.328 31 50 31.672 50 32.5C50 33.328 49.328 34 48.5 34H45.5C44.672 34 44 33.328 44 32.5C44 31.672 44.672 31 45.5 31ZM18.5 38H15.5C14.672 38 14 38.672 14 39.5C14 40.328 14.672 41 15.5 41H18.5C19.328 41 20 40.328 20 39.5C20 38.672 19.328 38 18.5 38ZM15.5 45H18.5C19.328 45 20 45.672 20 46.5C20 47.328 19.328 48 18.5 48H15.5C14.672 48 14 47.328 14 46.5C14 45.672 14.672 45 15.5 45ZM18.5 52H15.5C14.672 52 14 52.672 14 53.5C14 54.328 14.672 55 15.5 55H18.5C19.328 55 20 54.328 20 53.5C20 52.672 19.328 52 18.5 52ZM25.5 38H28.5C29.328 38 30 38.672 30 39.5C30 40.328 29.328 41 28.5 41H25.5C24.672 41 24 40.328 24 39.5C24 38.672 24.672 38 25.5 38ZM38.5 38H35.5C34.672 38 34 38.672 34 39.5C34 40.328 34.672 41 35.5 41H38.5C39.328 41 40 40.328 40 39.5C40 38.672 39.328 38 38.5 38ZM45.5 38H48.5C49.328 38 50 38.672 50 39.5C50 40.328 49.328 41 48.5 41H45.5C44.672 41 44 40.328 44 39.5C44 38.672 44.672 38 45.5 38ZM48.5 45H45.5C44.672 45 44 45.672 44 46.5C44 47.328 44.672 48 45.5 48H48.5C49.328 48 50 47.328 50 46.5C50 45.672 49.328 45 48.5 45ZM45.5 52H48.5C49.328 52 50 52.672 50 53.5C50 54.328 49.328 55 48.5 55H45.5C44.672 55 44 54.328 44 53.5C44 52.672 44.672 52 45.5 52Z" fill="black"/>
</svg>
